X: 16597
T: Hand Me Down The Tickle
R: jig
M: 6/8
K: Dmajor
c|:d2 D AFA|dfa (g{a}g)e|d2D AFA|BEF GAc|
d2A BAB|dfa gba|~f2 e dAF|GEF GAc:|
d2f Adf|def BAF|def ~B2A|GEF GAc|
d2f Adf|def gba|~f2 e dAF|GEF GAc|
daf Aaf|Aaf BAF|def ~B2A|GEF GAc|
~a3 afd|gef gba|~f2 e dAF|GEF GAc||

